X: 5
M: C|
L: 1/8
K: C
[M:6/5]a2e2- e^fgf g2d2 |[M:4/4] BddB A2G2 | e^fgg a2a2 | e^fgg g2g2 |
e^fgf g2d2 | BddB A2G2 | ABcB ABcB | AGEC D2HC2 :|


